多彩联盟凤凰联盟-APP✅️ 【—辋：8͟6͟B͟F͟.͟C͟C͟】✅️多彩联盟凤凰联盟-APP✅️【—辋：2͟9͟B͟F͟.͟V͟I͟P̲͟—】✅️<浏览器手动输入网址>，点平台首页微聊好友 老师会一对一为您服务！✅️✅️✅️ 【新客专属 存款3送】 【首存返利50%】 【首存最高可领18818】【二存最高再送16888】【存款笔笔赠送3%】 【每周六充值最高返利15%】【代理返佣最高55%抽成无上限】

- 全网最有实力平台    点击注册   WWW.86BF.CC

- 老师一对一辅导     点击咨询   WWW.29BF.VIP

- 合营代理无上限    点击开户   WWW.86BF.CC


📖 一、什么是大发彩票

大发彩票是一款提供多种娱乐玩法的平台，页面设计简洁直观，操作流程清晰，并配有客服服务和相关玩法介绍。用户通过手机即可浏览平台内容，了解不同玩法的基本规则。

🎲 二、平台玩法科普

大发彩票提供多种休闲娱乐玩法，部分项目节奏较快、规则容易理解，新手可先阅读玩法说明，从小额体验开始。参与过程中应合理安排时间和预算，保持理性心态，切勿盲目追投。📊


多彩联盟凤凰联盟-APP✅️ 【—辋：8͟6͟B͟F͟.͟C͟C͟】✅️多彩联盟凤凰联盟-APP✅️【—辋：2͟9͟B͟F͟.͟V͟I͟P̲͟—】✅️<浏览器手动输入网址>，点平台首页微聊好友 老师会一对一为您服务！✅️✅️✅️ 

![{我是你爹}](https://i.postimg.cc/3R0kqpZy/86.png)

1分快3一分快3大小单双技巧✅网：８６ＢＦ．ＣＣ  浏览器手动输入

富彩网APP如何下载✅网：２９ＢＦ．ＶＩＰ 浏览器手动输入

手机电玩app✅网：８６ＢＦ．ＣＣ  浏览器手动输入

bbg手机版下载✅网：２９ＢＦ．ＶＩＰ 浏览器手动输入

大发计划一期人工✅网：８６ＢＦ．ＣＣ  浏览器手动输入

1000本金倍投技巧✅网：２９ＢＦ．ＶＩＰ 浏览器手动输入

极速赛车平|台开户✅网：８６ＢＦ．ＣＣ  浏览器手动输入

ag街机电子能刷水吗✅网：２９ＢＦ．ＶＩＰ 浏览器手动输入

大发最有实力的回血导师✅网：８６ＢＦ．ＣＣ  浏览器手动输入

永远不会输的倍投方法✅网：２９ＢＦ．ＶＩＰ 浏览器手动输入

9码滚雪球赚六十万图✅网：８６ＢＦ．ＣＣ  浏览器手动输入

《彩票助赢软件》官网✅网：２９ＢＦ．ＶＩＰ 浏览器手动输入

分分赛车计划平|台✅网：８６ＢＦ．ＣＣ  浏览器手动输入

bbin游戏接口✅网：２９ＢＦ．ＶＩＰ 浏览器手动输入

靠谱的快3计划群✅网：８６ＢＦ．ＣＣ  浏览器手动输入

众赢计划软件app✅网：２９ＢＦ．ＶＩＰ 浏览器手动输入

带回血上岸速度最快的导师✅网：８６ＢＦ．ＣＣ  浏览器手动输入

大发回血上岸掌握技巧✅网：２９ＢＦ．ＶＩＰ 浏览器手动输入

中国福利彩票北京pk拾✅网：８６ＢＦ．ＣＣ  浏览器手动输入

天天三分彩计划✅网：２９ＢＦ．ＶＩＰ 浏览器手动输入

大发分分彩全天计划精准版✅网：８６ＢＦ．ＣＣ  浏览器手动输入

大发平|台里哪个信誉最好✅网：２９ＢＦ．ＶＩＰ 浏览器手动输入

ag线上国际✅网：８６ＢＦ．ＣＣ  浏览器手动输入

BBGames下载安装✅网：２９ＢＦ．ＶＩＰ 浏览器手动输入

mg电子平|台开户✅网：８６ＢＦ．ＣＣ  浏览器手动输入

彩票计划软件大全免费下载✅网：２９ＢＦ．ＶＩＰ 浏览器手动输入

真人发牌百家家乐✅网：８６ＢＦ．ＣＣ  浏览器手动输入

分分赛车的计划规律✅网：２９ＢＦ．ＶＩＰ 浏览器手动输入

BBIN真人游戏官网入口✅网：８６ＢＦ．ＣＣ  浏览器手动输入

ag网游官方网站✅网：２９ＢＦ．ＶＩＰ 浏览器手动输入

28幸运摇奖群✅网：８６ＢＦ．ＣＣ  浏览器手动输入

快3大小单双打法教程✅网：２９ＢＦ．ＶＩＰ 浏览器手动输入

极速快3官方平|台图片✅网：８６ＢＦ．ＣＣ  浏览器手动输入

大发极速快3稳定计划导师✅网：２９ＢＦ．ＶＩＰ 浏览器手动输入

百家乐的技巧✅网：８６ＢＦ．ＣＣ  浏览器手动输入

大小单双走势如何看✅网：２９ＢＦ．ＶＩＰ 浏览器手动输入

棋牌龙虎对刷流水套路✅网：８６ＢＦ．ＣＣ  浏览器手动输入

ag百家实战技巧✅网：２９ＢＦ．ＶＩＰ 浏览器手动输入

1分快3ios下载✅网：８６ＢＦ．ＣＣ  浏览器手动输入

在线计划全天免费计划✅网：２９ＢＦ．ＶＩＰ 浏览器手动输入

彩票导师带赚钱一对一✅网：８６ＢＦ．ＣＣ  浏览器手动输入

中国福彩网app官方下载✅网：２９ＢＦ．ＶＩＰ 浏览器手动输入

更新时间: 2026-10-09 08:06:46 (UTC+8)  【拔諦ZKSNAGBJR虜擾】

📰 AI Builders・今日热点
-
-----------热点新闻导读----------

原标题：社区绿色空间的儿童友好细节 | 引用：https://github.com/smithshelby8/DNlXB/blob/main/gxPm/%EF%BC%92%EF%BC%90%EF%BC%92%EF%BC%97%E7%A7%91%E6%99%AE%E4%BA%86%E8%A7%A3%3Aokooo%E6%BE%B3%E5%AE%A2%E5%BD%A9%E7%A5%A8-%E5%AE%98%E6%96%B9app-%E8%99%8E%E5%97%85%E6%B1%87%E5%B8%82.adoc/?233=217

原标题：骑行路线规划的服务体验观察 | 引用：https://github.com/smithshelby8/DNlXB/commit/b6d55df160d65552374f74c73db06ab8fc2f333a/?896=573

原标题：科学健身方法的空间设计要点 | 引用：https://github.com/smithshelby8/DNlXB/blob/main/gxPm/%EF%BC%92%EF%BC%90%EF%BC%92%EF%BC%97%E7%A7%91%E6%99%AE%E4%BA%86%E8%A7%A3%3Aokooo%E6%BE%B3%E5%AE%A2%E5%BD%A9%E7%A5%A8-%E5%AE%98%E6%96%B9app-%E8%99%8E%E5%97%85%E6%B1%87%E5%B8%82.adoc/?338

原标题：家庭照护支持中的几个关键细节 | 引用：https://github.com/smithshelby8/DNlXB/commit/b6d55df160d65552374f74c73db06ab8fc2f333a/?361

原标题：消防知识宣传的服务体验观察 | 引用：https://github.com/smithshelby8/DNlXB/blob/main/gxPm/%EF%BC%92%EF%BC%90%EF%BC%92%EF%BC%96%E6%95%B0%E6%8D%AE%E8%A7%A3%E8%AF%BB%3Aokooo%E6%BE%B3%E5%AE%A2%E5%BD%A9%E7%A5%A8-%E5%AE%98%E7%BD%91-%E5%87%A4%E5%87%B0%E8%A7%82%E5%AF%9F.pod/?209=485

原标题：机器人科普活动的线下体验记录 | 引用：https://github.com/smithshelby8/DNlXB/commit/86c170f407561aedfbac5f082bfff560a047a49d/?184=343

原标题：健康饮水科普的便民做法梳理 | 引用：https://github.com/smithshelby8/DNlXB/blob/main/gxPm/%EF%BC%92%EF%BC%90%EF%BC%92%EF%BC%96%E6%95%B0%E6%8D%AE%E8%A7%A3%E8%AF%BB%3Aokooo%E6%BE%B3%E5%AE%A2%E5%BD%A9%E7%A5%A8-%E5%AE%98%E7%BD%91-%E5%87%A4%E5%87%B0%E8%A7%82%E5%AF%9F.pod/?574

原标题：公共空间导览的绿色实践方法 | 引用：https://github.com/smithshelby8/DNlXB/commit/86c170f407561aedfbac5f082bfff560a047a49d/?739

原标题：公园无障碍服务的空间设计要点 | 引用：https://github.com/smithshelby8/DNlXB/blob/main/gxPm/%EF%BC%92%EF%BC%90%EF%BC%92%EF%BC%96%E9%87%8D%E5%A4%A7%E7%99%BE%E7%A7%91%3Aokooo%E6%BE%B3%E5%AE%A2%E5%BD%A9%E7%A5%A8-%E5%B9%B3%C2%B7%E5%8F%B0-%E8%84%89%E8%84%89%E4%BA%BA%E7%89%A9.mdown/?534=957

原标题：乡村生态观察的执行流程参考 | 引用：https://github.com/smithshelby8/DNlXB/commit/1311df7235b15f293d82a1cdacbb0dec47474f32/?187=529

原标题：城乡交流活动的实际需求与回应 | 引用：https://github.com/smithshelby8/DNlXB/blob/main/gxPm/%EF%BC%92%EF%BC%90%EF%BC%92%EF%BC%96%E9%87%8D%E5%A4%A7%E7%99%BE%E7%A7%91%3Aokooo%E6%BE%B3%E5%AE%A2%E5%BD%A9%E7%A5%A8-%E5%B9%B3%C2%B7%E5%8F%B0-%E8%84%89%E8%84%89%E4%BA%BA%E7%89%A9.mdown/?730

原标题：科学教育活动的参与方式与路径 | 引用：https://github.com/smithshelby8/DNlXB/commit/1311df7235b15f293d82a1cdacbb0dec47474f32/?756

原标题：绿色校园实践的家庭实践清单 | 引用：https://github.com/smithshelby8/DNlXB/blob/main/gxPm/%EF%BC%92%EF%BC%90%EF%BC%92%EF%BC%96%E7%A7%92%E6%87%82%E8%A7%84%E5%88%92%3Aokooo%E6%BE%B3%E5%AE%A2%E5%BD%A9%E7%A5%A8-%E4%B8%8B%E8%BD%BD-%E5%B8%8C%E8%85%8A%E8%B4%A2%E7%BB%8F.mkdn/?071=683

原标题：市民意见收集的便利性观察 | 引用：https://github.com/smithshelby8/DNlXB/commit/38f8506a2fd654e5e9ed9565b84b07eab60b3e1a/?106=469

原标题：农村环境治理的活动组织技巧 | 引用：https://github.com/smithshelby8/DNlXB/blob/main/gxPm/%EF%BC%92%EF%BC%90%EF%BC%92%EF%BC%96%E7%A7%92%E6%87%82%E8%A7%84%E5%88%92%3Aokooo%E6%BE%B3%E5%AE%A2%E5%BD%A9%E7%A5%A8-%E4%B8%8B%E8%BD%BD-%E5%B8%8C%E8%85%8A%E8%B4%A2%E7%BB%8F.mkdn/?550

原标题：城市地名文化的基础设施观察 | 引用：https://github.com/smithshelby8/DNlXB/commit/38f8506a2fd654e5e9ed9565b84b07eab60b3e1a/?607

原标题：通勤路线规划的入门知识整理 | 引用：https://github.com/smithshelby8/DNlXB/blob/main/gxPm/%EF%BC%92%EF%BC%90%EF%BC%92%EF%BC%96%E6%A0%B8%E5%BF%83%E7%8E%8B%E7%89%8C%3Aokooo%E6%BE%B3%E5%AE%A2%E5%BD%A9%E7%A5%A8-APP-%E7%BD%91%E6%98%93%E6%99%A8%E6%8A%A5.rst/?142=452

原标题：老年人文化生活的协商参与方式 | 引用：https://github.com/smithshelby8/DNlXB/commit/ba8dcf97ae44b366a14d2c936f3a6813d4d42c39/?952=448

原标题：小区电梯维护的入门知识整理 | 引用：https://github.com/smithshelby8/DNlXB/blob/main/gxPm/%EF%BC%92%EF%BC%90%EF%BC%92%EF%BC%96%E6%A0%B8%E5%BF%83%E7%8E%8B%E7%89%8C%3Aokooo%E6%BE%B3%E5%AE%A2%E5%BD%A9%E7%A5%A8-APP-%E7%BD%91%E6%98%93%E6%99%A8%E6%8A%A5.rst/?601

原标题：公共场所导视的日常实践笔记 | 引用：https://github.com/smithshelby8/DNlXB/commit/ba8dcf97ae44b366a14d2c936f3a6813d4d42c39/?576
